X:1
T:Title
%%score ( 1 2 ) 3
L:1/8
Q:1/4=100
M:4/4
K:Bb
V:1 treble nm="Strings 1, Treble"
V:2 treble 
V:3 bass nm="Strings 1, Bass"
V:1
 z4 z2 [Fd]>[Fd] | [Fd]2 [DB]2 [DF]2 [B,D]2 | [EG]2 [DF]4 [Fc]>[Fc] | [Fc]2 [EG]2 [EA]2 F2 | %4
w: 1.~Cast~ thy~|cares~ up on~ the~|Sav ior,~ He~ will~|bear~ them~ all~ for~|
 [Fd]6 [Fd]>[Fd] | [Fd]2 [DB]2 [DF]2 [B,D]2 | [EG]2 [DF]4 [Ec]>[Ec] | [=Ec]2 [EG]2 [FA]2 [_EF]2 | %8
w: thee;~ And~ thy~|soul~ which~ now~ is~|bur dened,~ Shall~ be~|kept~ for ev er~|
 [DB]6 [Fd]>[Ec] | [DB]4- [DB]>[CA] [DB]>[B,D] | [EG]2 [DF]4 c>c | c2- [=Ec-]2 [Fc]>[FG] [FA]>F | %12
w: free.~ * *||||
 [Fd]6 [Fd]>[Fd] | [Fd]4- [Fd]>[FB] [Fc]>[FB] | [GB]2 [Ge]4 [=Ed]>[Ec] | [FB]3 [DF] [Fd]3 [Ec] | %16
w: ||||
 [DB]6 z2 |] %17
w: |
V:2
 x8 | x8 | x8 | x8 | x8 | x8 | x8 | x8 | x8 | x8 | x8 | =E2 z2 z4 | x8 | x8 | x8 | x8 | x8 |] %17
V:3
 z4 z2 [B,,B,]>[B,,B,] | [B,,B,]2 [B,,B,]2 [B,,B,]2 [B,,B,]2 | [B,,B,]2 [B,,B,]4 [F,A,]>[F,A,] | %3
 [F,A,]2 [F,A,]2 [F,,F,C]2 [F,,F,A,]2 | [B,,B,]6 [B,,B,]>[B,,B,] | %5
 [B,,B,]2 [B,,B,]2 [B,,B,]2 [B,,B,]2 | [B,,B,]2 [B,,B,]4 [E,G,]>[E,G,] | %7
 [C,G,]2 [C,C]2 [F,C]2 [F,A,]2 | [B,,B,]6 z2 | [B,,F,]2 [B,,F,]2 [B,,F,]>[B,,F,] [B,,F,]>[B,,F,] | %10
 [B,,B,]2 [B,,B,]4 z2 | [C,G,]2 [C,G,]2 [F,A,]>[F,A,] [F,C]>[F,A,] | [B,,B,]6 z2 | %13
 [B,,B,]2 [B,,B,]2 [B,,B,]>[D,B,] [C,A,]>[D,B,] | [E,B,]2 [E,B,]4 [G,B,]>[G,B,] | %15
 [F,D]3 [F,B,] [F,B,]3 [F,A,] | [B,,F,B,]6 z2 |] %17

